X:64
T:Celebrated Set Of Quadrilles No.4. Le4.064, A
T:White Cockade,aka. Le4.064
B:L.Leadley MS#4 c1850
Z:Village Music Project, 2016 Steve Mansfield
M:2/4
L:1/8
Q:2/4=60
K:G
G/A/ | BB c/B/A/G/ | BBBg | dB c/B/A/G/ | BA AG/A/ |
BB c/B/A/G/ | Bd g>a | b/a/g/f/ a/g/f/e/ |1 dBB :|2 dB z ||
B/c/ | dB gB |  d/^c/d/e/ d>e | dB gf/g/ | aA cB/A/ |
BB c/B/A/G/ | Bd g>a | b/a/g/f/ a/g/f/e/ | dBB !segno! ||
[K:Bb]
D | G/B/d/g/ ba | gdde | e/d/c/B/ d/c/B/A/ | c/B/A/B/ GE |
G/B/d/g/ ba | gdde | e/^c/d/B/ c/A/B/^G/ | G/^F/G/A/ B/c/d/e/ |
dd e/d/c/B/ | df bc' | d'/c'/b/a/ c'/b/a/g/ | ^f/e/d/c/ B/A/G/F/ |
G/B/d/g/ ba | gdde | e/d/c/B/ B/A/G/^F/ | A2 G !D.C.! |]

